front/public/static/EuropeanFlag.svg

<svg fill="none" height="16" viewBox="0 0 16 16" width="16" xmlns="http://www.w3.org/2000/svg" xmlns:xlink="http://www.w3.org/1999/xlink"><clipPath id="a"><rect height="16" rx="2" width="16"/></clipPath><clipPath id="b"><path d="m0 0h16v16h-16z"/></clipPath><g clip-path="url(#a)"><rect fill="#fff" height="16" rx="2" width="16"/><g clip-path="url(#b)"><path d="m-4 0h24v16h-24z" fill="#00349a"/><g fill="#fecc00"><path d="m12.596 9.69531c.0759.04864.2064.54169.2375.64759.2198.0142.5361.0079.7561-.0041-.1792.1405-.4206.3139-.6067.4432.0793.2218.1423.4956.2375.7067-.1961-.146-.396-.2989-.6007-.4318-.0917.0448-.4679.3346-.5884.4175l.22-.691c-.1925-.1481-.4038-.2851-.588-.4403.2296.0127.4944.0009.7328.0084.0613-.2075.1575-.45023.1999-.65619z"/><path d="m7.98799 1.71094c.06863.05964.20108.52369.22836.63565.23784.00369.51428.00535.74855-.00728-.16319.14127-.41955.30902-.60332.45277.07933.1949.16454.48565.23271.69362-.19522-.14631-.38158-.28879-.58408-.42531-.11208.03614-.45936.32927-.60486.41575.07823-.22898.15441-.45866.2285-.68901-.18294-.14838-.40222-.2913-.59308-.44247.23406.00853.49352.00136.73284.0054.0704-.21339.14185-.42643.21438-.63912z"/><path d="m3.3796 9.69531c.0496.04433.1896.55209.2167.64979.24954.0009.49669.0031.74616-.0073-.18753.1547-.39887.2941-.59333.4454.06488.2243.14528.4693.21972.6911l-.56675-.4161c-.10437.0226-.50765.344-.62208.431.08122-.1961.16983-.5025.2341-.7118-.163-.1021-.43497-.315-.59908-.4351.24655.0039.49312.0054.7397.0044.07256-.2012.14283-.45972.22486-.65139z"/><path d="m5.33252 2.41406c.04096.03038.19824.5671.22302.64696.25118-.00182.5024-.0006.75358.00368-.20654.12994-.42041.29236-.61558.4388.07917.21772.15189.45581.22353.67752-.18431-.11733-.3987-.29175-.58913-.4204-.18678.14236-.4425.31761-.60726.47011.08283-.18701.17755-.57829.26062-.72587-.20011-.13434-.41051-.29884-.61631-.4405.24664-.00502.49334-.00549.74-.00142.06744-.20103.14681-.45789.22753-.64888z"/><path d="m10.6483 2.41406c.0807.07047.2023.52914.2346.64775l.7536-.0004c-.2086.15267-.4105.28654-.6141.44837.0907.18755.1626.49502.2492.71058-.1938-.16342-.3697-.28909-.5758-.4385l-.006-.00531c-.07-.01071-.5221.34684-.6116.41222.0731-.23041.1495-.45972.2293-.68788-.2005-.14689-.40388-.29975-.61219-.43447.24789-.00637.49589-.00819.74389-.00544.0733-.21662.1453-.42726.2091-.64692z"/><path d="m2.65323 7.02344c.07255.09239.19413.53314.23002.66404.24803.00207.50103-.00168.74947-.00284-.1998.13549-.40822.3037-.6095.42908.08253.20712.16368.49045.23412.70909-.19486-.15712-.38108-.29089-.58528-.43523-.03131.00251-.51591.36367-.58945.41264.06339-.21806.14934-.4621.22054-.68016-.13542-.11544-.44108-.32468-.59465-.42573.20534-.01683.51517-.00828.72882-.00761.07985-.21817.14416-.44219.21591-.66328z"/><path d="m13.3339 7.02344c.0309.02351.1956.57417.2228.66062l.742.00246c-.1878.12657-.4259.28815-.5978.43429.0492.18296.1537.49507.217.67016-.124-.0685-.5225-.3885-.5942-.40597-.195.14245-.3955.2857-.5836.43642.0558-.17262.1697-.56261.2388-.70442-.1616-.09966-.4349-.3107-.5993-.42825.2155-.01403.5085-.00514.7255-.00255.0703-.21256.1461-.45776.2288-.66276z"/><path d="m5.32837 11.6484c.04944.0365.19619.5623.22803.666.24188-.0006.48375.0001.72561.0024-.18331.1356-.39136.2864-.58137.4101.05417.1936.1504.5136.22119.6924-.11193-.0601-.47611-.3327-.57621-.4177-.19012.1215-.41456.2949-.59983.4309.05724-.1865.15652-.5316.23288-.6987-.11459-.0587-.45536-.3198-.60294-.4168.24321-.0039.48647-.004.72969-.0005.07081-.2239.14514-.4466.22295-.6681z"/><path d="m3.37974 4.375c.04755.04745.19972.5645.22315.6598.22033.00103.5249.01017.7361-.02021-.19255.15218-.3906.29725-.59375.43493.064.20565.15508.5169.23615.70715-.20004-.1447-.39885-.29109-.59643-.43915-.0558.02629-.51883.38312-.60052.44531.07572-.23594.1541-.47102.23511-.70519-.16353-.1138-.42131-.30062-.56789-.42434l.69848.00281c.06405-.20809.14994-.46013.2296-.66111z"/><path d="m7.9856 12.3672c.06741.0435.20414.5512.23692.6635.23352.0008.49227.0066.72289-.0089-.1759.1453-.39184.2849-.57595.432.05972.2177.15056.4807.21806.7008-.18117-.1514-.39111-.292-.58029-.4399-.07172.0262-.51113.3737-.59533.4388.04872-.202.15486-.4907.2177-.7072-.18769-.136-.3824-.2738-.56417-.4166.23562-.0002.47123.0008.70684.0032.05021-.1908.15038-.4669.21333-.6657z"/><path d="m10.6447 11.6484c.0796.0468.208.5499.2388.6654l.7458-.0014c-.1992.1257-.4122.3069-.6057.4175.0851.2167.1579.473.2262.6984-.1963-.1351-.3657-.283-.5725-.4104-.002-.0006-.0039-.0017-.006-.0018-.053-.0042-.5094.3532-.591.4055.0676-.2291.1512-.4622.2205-.6955-.1817-.1144-.40233-.2824-.58596-.4093.23769-.0075.48426-.0041.72286-.0036.0773-.2189.1464-.4407.207-.6648z"/><path d="m12.599 4.36719c.0745.06303.2128.54184.2426.65958.2367.0014.4775.00554.7136-.00594-.1397.12505-.4205.31998-.58.43765.087.20233.1708.48568.2383.70033-.1842-.15339-.3883-.29579-.5816-.43948-.0417.00092-.5234.36447-.6134.42067.0891-.20777.1667-.4782.2356-.69853-.1897-.12194-.3995-.28611-.5808-.42231.1969.01836.5057.0072.718.01187.0384-.17494.1553-.45831.2077-.66384z"/></g></g></g></svg>

<svg width="16" height="16" viewBox="0 0 16 16" fill="none" xmlns="http://www.w3.org/2000/svg">
<g clip-path="url(#clip0_9351_63159)">
<rect width="16" height="16" rx="2" fill="white"/>
<g clip-path="url(#clip1_9351_63159)">
<path d="M-4 0H20V16H-4V0Z" fill="#00349A"/>
<path d="M12.596 9.69531C12.6719 9.74395 12.8024 10.237 12.8335 10.3429C13.0533 10.3571 13.3696 10.3508 13.5896 10.3388C13.4104 10.4793 13.169 10.6527 12.9829 10.782C13.0622 11.0038 13.1252 11.2776 13.2204 11.4887C13.0243 11.3427 12.8244 11.1898 12.6197 11.0569C12.528 11.1017 12.1518 11.3915 12.0313 11.4744L12.2513 10.7834C12.0588 10.6353 11.8475 10.4983 11.6633 10.3431C11.8929 10.3558 12.1577 10.344 12.3961 10.3515C12.4574 10.144 12.5536 9.90127 12.596 9.69531Z" fill="#FECC00"/>
<path d="M7.98799 1.71094C8.05662 1.77058 8.18907 2.23463 8.21635 2.34659C8.45419 2.35028 8.73063 2.35194 8.9649 2.33931C8.80171 2.48058 8.54535 2.64833 8.36158 2.79208C8.44091 2.98698 8.52612 3.27773 8.59429 3.4857C8.39907 3.33939 8.21271 3.19691 8.01021 3.06039C7.89813 3.09653 7.55085 3.38966 7.40535 3.47614C7.48358 3.24716 7.55976 3.01748 7.63385 2.78713C7.45091 2.63875 7.23163 2.49583 7.04077 2.34466C7.27483 2.35319 7.53429 2.34602 7.77361 2.35006C7.84401 2.13667 7.91546 1.92363 7.98799 1.71094Z" fill="#FECC00"/>
<path d="M3.3796 9.69531C3.4292 9.73964 3.5692 10.2474 3.5963 10.3451C3.84584 10.346 4.09299 10.3482 4.34246 10.3378C4.15493 10.4925 3.94359 10.6319 3.74913 10.7832C3.81401 11.0075 3.89441 11.2525 3.96885 11.4743L3.4021 11.0582C3.29773 11.0808 2.89445 11.4022 2.78002 11.4892C2.86124 11.2931 2.94985 10.9867 3.01412 10.7774C2.85112 10.6753 2.57915 10.4624 2.41504 10.3423C2.66159 10.3462 2.90816 10.3477 3.15474 10.3467C3.2273 10.1455 3.29757 9.88698 3.3796 9.69531Z" fill="#FECC00"/>
<path d="M5.33252 2.41406C5.37348 2.44444 5.53076 2.98116 5.55554 3.06102C5.80672 3.0592 6.05794 3.06042 6.30912 3.0647C6.10258 3.19464 5.88871 3.35706 5.69354 3.5035C5.77271 3.72122 5.84543 3.95931 5.91707 4.18102C5.73276 4.06369 5.51837 3.88927 5.32794 3.76062C5.14116 3.90298 4.88544 4.07823 4.72068 4.23073C4.80351 4.04372 4.89823 3.65244 4.9813 3.50486C4.78119 3.37052 4.57079 3.20602 4.36499 3.06436C4.61163 3.05934 4.85833 3.05887 5.10499 3.06294C5.17243 2.86191 5.2518 2.60505 5.33252 2.41406Z" fill="#FECC00"/>
<path d="M10.6483 2.41406C10.729 2.48453 10.8506 2.9432 10.8829 3.06181L11.6365 3.06141C11.4279 3.21408 11.226 3.34795 11.0224 3.50978C11.1131 3.69733 11.185 4.0048 11.2716 4.22036C11.0778 4.05694 10.9019 3.93127 10.6958 3.78186L10.6898 3.77655C10.6198 3.76584 10.1677 4.12339 10.0782 4.18877C10.1513 3.95836 10.2277 3.72905 10.3075 3.50089C10.107 3.354 9.90362 3.20114 9.69531 3.06642C9.9432 3.06005 10.1912 3.05823 10.4392 3.06098C10.5125 2.84436 10.5845 2.63372 10.6483 2.41406Z" fill="#FECC00"/>
<path d="M2.65323 7.02344C2.72578 7.11583 2.84736 7.55658 2.88325 7.68748C3.13128 7.68955 3.38428 7.6858 3.63272 7.68464C3.43292 7.82013 3.2245 7.98834 3.02322 8.11372C3.10575 8.32084 3.1869 8.60417 3.25734 8.82281C3.06248 8.66569 2.87626 8.53192 2.67206 8.38758C2.64075 8.39009 2.15615 8.75125 2.08261 8.80022C2.146 8.58216 2.23195 8.33812 2.30315 8.12006C2.16773 8.00462 1.86207 7.79538 1.7085 7.69433C1.91384 7.6775 2.22367 7.68605 2.43732 7.68672C2.51717 7.46855 2.58148 7.24453 2.65323 7.02344Z" fill="#FECC00"/>
<path d="M13.3339 7.02344C13.3648 7.04695 13.5295 7.59761 13.5567 7.68406L14.2987 7.68652C14.1109 7.81309 13.8728 7.97467 13.7009 8.12081C13.7501 8.30377 13.8546 8.61588 13.9179 8.79097C13.7939 8.72247 13.3954 8.40247 13.3237 8.385C13.1287 8.52745 12.9282 8.6707 12.7401 8.82142C12.7959 8.6488 12.9098 8.25881 12.9789 8.117C12.8173 8.01734 12.544 7.8063 12.3796 7.68875C12.5951 7.67472 12.8881 7.68361 13.1051 7.6862C13.1754 7.47364 13.2512 7.22844 13.3339 7.02344Z" fill="#FECC00"/>
<path d="M5.32837 11.6484C5.37781 11.6849 5.52456 12.2107 5.5564 12.3144C5.79828 12.3138 6.04015 12.3145 6.28201 12.3168C6.0987 12.4524 5.89065 12.6032 5.70064 12.7269C5.75481 12.9205 5.85104 13.2405 5.92183 13.4193C5.8099 13.3592 5.44572 13.0866 5.34562 13.0016C5.1555 13.1231 4.93106 13.2965 4.74579 13.4325C4.80303 13.246 4.90231 12.9009 4.97867 12.7338C4.86408 12.6751 4.52331 12.414 4.37573 12.317C4.61894 12.3131 4.8622 12.313 5.10542 12.3165C5.17623 12.0926 5.25056 11.8699 5.32837 11.6484Z" fill="#FECC00"/>
<path d="M3.37974 4.375C3.42729 4.42245 3.57946 4.9395 3.60289 5.0348C3.82322 5.03583 4.12779 5.04497 4.33899 5.01459C4.14644 5.16677 3.94839 5.31184 3.74524 5.44952C3.80924 5.65517 3.90032 5.96642 3.98139 6.15667C3.78135 6.01197 3.58254 5.86558 3.38496 5.71752C3.32916 5.74381 2.86613 6.10064 2.78444 6.16283C2.86016 5.92689 2.93854 5.69181 3.01955 5.45764C2.85602 5.34384 2.59824 5.15702 2.45166 5.0333L3.15014 5.03611C3.21419 4.82802 3.30008 4.57598 3.37974 4.375Z" fill="#FECC00"/>
<path d="M7.9856 12.3672C8.05301 12.4107 8.18974 12.9184 8.22252 13.0307C8.45604 13.0315 8.71479 13.0373 8.94541 13.0218C8.76951 13.1671 8.55357 13.3067 8.36946 13.4538C8.42918 13.6715 8.52002 13.9345 8.58752 14.1546C8.40635 14.0032 8.19641 13.8626 8.00723 13.7147C7.93551 13.7409 7.4961 14.0884 7.4119 14.1535C7.46062 13.9515 7.56676 13.6628 7.6296 13.4463C7.44191 13.3103 7.2472 13.1725 7.06543 13.0297C7.30105 13.0295 7.53666 13.0305 7.77227 13.0329C7.82248 12.8421 7.92265 12.566 7.9856 12.3672Z" fill="#FECC00"/>
<path d="M10.6447 11.6484C10.7243 11.6952 10.8527 12.1983 10.8835 12.3138L11.6293 12.3124C11.4301 12.4381 11.2171 12.6193 11.0236 12.7299C11.1087 12.9466 11.1815 13.2029 11.2498 13.4283C11.0535 13.2932 10.8841 13.1453 10.6773 13.0179C10.6753 13.0173 10.6734 13.0162 10.6713 13.0161C10.6183 13.0119 10.1619 13.3693 10.0803 13.4216C10.1479 13.1925 10.2315 12.9594 10.3008 12.7261C10.1191 12.6117 9.89847 12.4437 9.71484 12.3168C9.95253 12.3093 10.1991 12.3127 10.4377 12.3132C10.515 12.0943 10.5841 11.8725 10.6447 11.6484Z" fill="#FECC00"/>
<path d="M12.599 4.36719C12.6735 4.43022 12.8118 4.90903 12.8416 5.02677C13.0783 5.02817 13.3191 5.03231 13.5552 5.02083C13.4155 5.14588 13.1347 5.34081 12.9752 5.45848C13.0622 5.66081 13.146 5.94416 13.2135 6.15881C13.0293 6.00542 12.8252 5.86302 12.6319 5.71933C12.5902 5.72025 12.1085 6.0838 12.0185 6.14C12.1076 5.93223 12.1852 5.6618 12.2541 5.44147C12.0644 5.31953 11.8546 5.15536 11.6733 5.01916C11.8702 5.03752 12.179 5.02636 12.3913 5.03103C12.4297 4.85609 12.5466 4.57272 12.599 4.36719Z" fill="#FECC00"/>
</g>
</g>
<defs>
<clipPath id="clip0_9351_63159">
<rect width="16" height="16" rx="2" fill="white"/>
</clipPath>
<clipPath id="clip1_9351_63159">
<rect width="16" height="16" fill="white"/>
</clipPath>
</defs>
</svg>
